!!!COM: Robert Franz
!!!CNT: Deutscher
!!!TXO: Deutsche 
!!!OTL: Fruhling und Liebe
!!!OPS: Op. 3
!!!ONM: No. 3
!!!ONB: Original key: A Major
!!!LYR: Hoffmann von Fallersleben
!!!ENC: Brian Bice
!!!YOR: Vocal Album, G. Schirmer, Inc., 1907
!!!ODT: 1844/
!!NB: Vocal melody and text only encoded.
**kern	**silbe
*clefG2	*
*k[f#c#g#d#a#e#]	*
*M6/8	*
=0	=0
4.r	.
4r	.
{8cc#	{Im
=1	=1
4cc#	Ro-
8f#	-sen-
(8.f#	-busch
16g#)	|
8f#	die
=2	=2
4.an	Lie-
4.gn	-be
=3	=3
4f#}	schlief,}
8r	.
4r	.
8r	.
=4	=4
4r	.
8r	.
4r	.
{8cc#	{der
=5	=5
4f#	Fru2h-
8g#	-ling
(8a#	kam,
8b)	|
8cc#	der
=6	=6
4cc#	Fru2h-
8g#	-ling
4g#}	rief;}
{8cc#	{die
=7	=7
4cc#	Lie-
8f#	-be
(8.f#	ho2rt's,
16g#)	|
8f#	die
=8	=8
4.an	Lie-
4gn	-be
8gn	er-
=9	=9
4f#}	-wacht,}
8r	.
4r	.
8r	.
=10	=10
{8en	{schaut
8c#	aus
8en	der
8.an	Knosp'-
16f#	-her
16g#	vor
16an	und
=11	=11
[4.g#	lacht,
4g#}]	|}
{8g#	{und
=12	=12
4cc#	denkt,
8b	zu
8.an	zei-
16gn	-tig
16f#	mo2cht's
16b	wohl
=13	=13
4an}	sein,}
8r	.
4r	.
8r	.
=14	=14
4r	.
8r	.
4r	.
{8cc#	{und
=15	=15
4a#	schla2ft
8a#	dann
(8dd#	ru-
8cc#)	|
8b	-hig
=16	=16
4.a#	wie-
4.g#	-der
=17	=17
4f#}	ein.}
8r	.
4r	.
8r	.
=18	=18
4r	.
8r	.
4r	.
{8cc#	{Der
=19	=19
4cc#	Fru2h-
8f#	-ling
(8.f#	a-
16g#)	|
8f#	-ber
=20	=20
4.an	la2sst
4.gn	nicht
=21	=21
4f#}	nach,}
8r	.
4r	.
8r	.
=22	=22
4r	.
8r	.
4r	.
{8cc#	{er
=23	=23
4f#	ku2sst
8g#	sie
(8a#	je-
8b)	|
8cc#	-den
=24	=24
4cc#	Mor-
8g#	-gen
4g#}	wach,}
{8cc#	{er
=25	=25
4cc#	kost
8f#	mit
(8.f#	ihr
16g#)	|
8f#	von
=26	=26
4.an	fru2h
4.gn	bis
=27	=27
4f#}	spat,}
8r	.
4r	.
8r	.
=28	=28
{8en	{bis
8c#	sie
8en	ihr
8.an	Herz
16f#	ge-
16g#	-o2ff-
16an	-net
=29	=29
[4.g#	hat
4g#]	|
8g#	ind
=30	=30
4cc#	sei-
8b	-ne
4an	hei-
8gn	-sse
=31	=31
4b	Sehn-
8b	-sucht
4an}	stillt,}
8r	.
=32	=32
4r	.
8r	.
4r	.
{8cc#	{und
=33	=33
(4a#	je-
16g#q	|
16a#q	|
16g#)	|
16a#	-den
(8dd#	Son-
8cc#)	|
8b	-nen-
=34	=34
4a#	-blick
8r	.
(4g#	ver-
8a#)	|
=35	=35
4f#}	-gilt.}
8r	.
4r	.
8r	.
*-	*-
